resources/themes/cura-light/icons/tab_status_unknown.svg

<svg width="18" height="18" viewBox="0 0 18 18" xmlns="http://www.w3.org/2000/svg" xmlns:xlink="http://www.w3.org/1999/xlink"><defs><rect id="a" width="16" height="16" rx="8"/></defs><g fill="none" fill-rule="evenodd"><g transform="translate(1 1)"><use fill="#8B9595" xlink:href="#a"/><rect stroke="#272C30" x="-.5" y="-.5" width="17" height="17" rx="8.5"/></g><g fill="#FFF"><path d="M9.013 3.5c-1.723 0-2.48 1.015-2.777 1.62-.247.503-.239.937-.235 1.018l1.589-.08v.024c0-.001.004-.118.074-.26.241-.492.683-.731 1.35-.731.456 0 .803.126 1.061.384.402.403.48 1.01.48 1.15 0 .187-.065 1.145-1.25 1.76-.987.514-1.553 1.52-1.553 2.762v.474l1.59-.003v-.47c0-.451.121-1.051.697-1.35 1.996-1.038 2.105-2.818 2.107-3.165.002-.492-.194-1.527-.944-2.28-.555-.558-1.312-.853-2.189-.853zM7.818 14.386H9.41v-1.25H7.82z"/></g></g></svg>

<?xml version="1.0" encoding="UTF-8"?>
<svg width="35" height="28" viewBox="0 0 35 28" xmlns="http://www.w3.org/2000/svg">
    <g transform="translate(15.5, 4)">
        <circle cx="9" cy="9" r="8.5" fill="#8B9595" stroke="#18294D" />
        <path fill="#FFFFFF" d="M9.013 3.5C7.29 3.5 6.533 4.515 6.236 5.12 5.989 5.623 5.997 6.057 6.001 6.138L7.59 6.058 7.591 6.082C7.591 6.081 7.594 5.964 7.664 5.821 7.905 5.33 8.347 5.091 9.013 5.091 9.47 5.091 9.817 5.217 10.075 5.475 10.477 5.878 10.556 6.485 10.555 6.626 10.554 6.812 10.49 7.77 9.306 8.386 8.318 8.899 7.752 9.906 7.752 11.147L7.752 11.621 9.343 11.618 9.342 11.147C9.342 10.697 9.463 10.097 10.039 9.798 12.035 8.76 12.144 6.98 12.146 6.633 12.148 6.141 11.952 5.106 11.202 4.353 10.647 3.795 9.89 3.5 9.013 3.5Z"/>
        <rect fill="#FFFFFF" x="7.818" y="13.136" width="1.591" height="1.25" />
    </g>
</svg>
